22x22/apps/albion-online.svg

<svg xmlns="http://www.w3.org/2000/svg" width="22" height="22" version="1.1">
 <path style="opacity:0.2" d="m 8,10.500007 h 6 v 8.000012 L 11.000001,21.5 8,18.500019 Z"/>
 <path style="fill:#afafb1" d="m 8,9.999994 h 6 v 8.000013 L 11.000001,20.999988 8,18.000007 Z"/>
 <path style="fill:#f4f4f7" d="m 8,9.999994 h 3.000001 V 20.999988 L 8,18.000007 Z"/>
 <rect style="opacity:0.2" width="4" height="14" x="6.5" y="-18" rx="1.999" ry="2" transform="rotate(90)"/>
 <rect style="fill:#ec8a2b" width="4" height="14" x="6" y="-18" rx="1.999" ry="2" transform="rotate(90)"/>
 <rect style="fill:#d13808" width="4" height="5" x="9" y="1"/>
 <rect style="opacity:0.2" width="6" height="2" x="8" y="1.5" rx=".999" ry="1"/>
 <rect style="fill:#ec8a2b" width="6" height="2" x="8" y="1" rx=".999" ry="1"/>
 <path style="opacity:0.2;fill:#f4f4f7" d="m 6,6.0000205 c -1.1077625,0 -2,0.891439 -2,1.9990235 v 0.00195 C 4,8.086469 4.014105,8.1674305 4.024415,8.2500205 4.1477195,7.262375 4.9777235,6.5000205 6,6.5000205 h 10 c 1.022276,0 1.85228,0.7623545 1.975586,1.75 C 17.985897,8.1674305 18,8.086469 18,8.000997 V 7.999047 C 18,6.8914595 17.107762,6.0000205 16,6.0000205 Z"/>
 <path style="opacity:0.2;fill:#f4f4f7" d="m 8.9990235,1.0000205 c -0.553723,0 -0.9990235,0.4461386 -0.9990235,1 0,0.086896 0.014515,0.1697248 0.035155,0.25 0.1109215,-0.4313886 0.4970195,-0.75 0.9638685,-0.75 h 4.0019535 c 0.466849,0 0.852947,0.3186114 0.963867,0.75 C 13.985485,2.1697453 14,2.0869162 14,2.0000205 c 0,-0.5538614 -0.4453,-1 -0.999023,-1 z"/>
</svg>

<svg xmlns="http://www.w3.org/2000/svg" width="22" height="22"><path style="opacity:.2" d="M8 10.5h6v8l-3 3-3-3z"/><path style="fill:#afafb1" d="M8 10h6v8l-3 3-3-3z"/><path style="fill:#f4f4f7" d="M8 10h3v11l-3-3z"/><rect style="opacity:.2" width="4" height="14" x="6.5" y="-18" rx="1.999" ry="2" transform="rotate(90)"/><rect style="fill:#ec8a2b" width="4" height="14" x="6" y="-18" rx="1.999" ry="2" transform="rotate(90)"/><path style="fill:#d13808" d="M9 1h4v5H9z"/><rect style="opacity:.2" width="6" height="2" x="8" y="1.5" rx=".999" ry="1"/><rect style="fill:#ec8a2b" width="6" height="2" x="8" y="1" rx=".999" ry="1"/><path style="opacity:.2;fill:#f4f4f7" d="M6 6c-1.108 0-2 .891-2 1.999v.002c0 .085.014.166.024.249A1.989 1.989 0 0 1 6 6.5h10c1.022 0 1.852.762 1.976 1.75.01-.083.024-.164.024-.249v-.002A1.995 1.995 0 0 0 16 6zM8.999 1A.997.997 0 0 0 8 2c0 .087.015.17.035.25A.994.994 0 0 1 9 1.5h4.002c.467 0 .853.319.964.75A.998.998 0 0 0 14 2c0-.554-.445-1-.999-1z"/></svg>
